icons/circle-arrow-left.svg

<svg xmlns="http://www.w3.org/2000/svg" width="24" height="24" viewBox="0 0 24 24">
  <path d="M12,1 C18.0751322,1 23,5.92486775 23,12 C23,18.0751322 18.0751322,23 12,23 C5.92486775,23 1,18.0751322 1,12 C1,5.92486775 5.92486775,1 12,1 Z M6.218,11.375 L6.22,11.374 L6.218,11.376 L6.1864634,11.4182204 L6.1864634,11.4182204 C6.17252629,11.4377852 6.15891923,11.4583066 6.14606743,11.4793398 C6.13772719,11.4928304 6.12986112,11.5064305 6.12234168,11.5201698 C6.1131069,11.5371537 6.1040443,11.5549095 6.09550623,11.5729619 C6.08591191,11.5932325 6.07731015,11.613165 6.06938695,11.6333026 C6.06244532,11.6508514 6.0559003,11.6689468 6.04987089,11.6872762 C6.04489522,11.7025958 6.04017413,11.7182588 6.03584514,11.734007 C6.02983363,11.7555635 6.0246398,11.7772539 6.02016515,11.7992059 C6.01670217,11.8166247 6.01362808,11.834051 6.0110178,11.8515331 C6.00810098,11.8705796 6.00574796,11.8903051 6.00397748,11.9101982 L6.0017331,11.9409686 L6.0017331,11.9409686 L6.0001833,11.9806591 L6,12 L6.001,12.037 L6.0017331,12.0590314 L6.002,12.074 L6.002,12.059 L6.003,12.081 L6.01101934,12.1489612 L6.01101934,12.1489612 C6.01365592,12.1661068 6.01671819,12.1834538 6.02024007,12.2007258 C6.0246398,12.2227461 6.02983363,12.2444365 6.03572097,12.2658396 C6.04009773,12.2814633 6.04472872,12.2968513 6.04973809,12.3121425 C6.05612249,12.3317977 6.06331574,12.3515792 6.07110396,12.3710585 L6.09367336,12.4232215 L6.09367336,12.4232215 C6.10247102,12.4419547 6.11185933,12.4604898 6.12179647,12.4786822 C6.12981337,12.4935488 6.13863517,12.5087703 6.14789148,12.5238 C6.16150681,12.5456983 6.17541687,12.5664533 6.19006311,12.5866395 C6.19627953,12.5953343 6.2029095,12.6041603 6.20970461,12.6128994 C6.21512226,12.6197272 6.21739784,12.6225945 6.21968877,12.625449 L6.29289322,12.7071068 L9.94974747,16.363961 C10.3402718,16.7544853 10.9734367,16.7544853 11.363961,16.363961 C11.724445,16.0034771 11.7521745,15.436246 11.4471496,15.0439548 L11.363961,14.9497475 L9.414,12.9991458 L17,13 C17.5522847,13 18,12.5522847 18,12 C18,11.4871642 17.6139598,11.0644928 17.1166211,11.0067277 L17,11 L9.414,10.9991458 L11.363961,9.05025253 C11.7544853,8.65972824 11.7544853,8.02656326 11.363961,7.63603897 C11.0034771,7.27555501 10.436246,7.24782547 10.0439548,7.55285036 L9.94974747,7.63603897 L6.29289322,11.2928932 L6.2366872,11.3538862 L6.2366872,11.3538862 L6.225,11.367 L6.238,11.353 L6.222,11.371 L6.218,11.375 Z"/>
</svg>

<svg xmlns="http://www.w3.org/2000/svg" viewBox="0 0 24 24">
  <path d="M12 1a11 11 0 1 1 0 22 11 11 0 0 1 0-22zM6.22 11.38l-.03.04a1.04 1.04 0 0 0-.19.49v.16-.01.02l.01.07a1.09 1.09 0 0 0 .06.22l.02.05a1.02 1.02 0 0 0 .13.2l.07.09 3.66 3.65a1 1 0 0 0 1.5-1.32l-.09-.09L9.41 13H17a1 1 0 0 0 .12-2H9.4l1.95-1.95a1 1 0 0 0-1.32-1.5l-.09.09-3.66 3.65-.05.06-.02.02.02-.02-.02.02z"/>
</svg>
